X: 1
T: Mairi's Wedding
C: trad. Scottish reel
O: arr. by Tom Morley
%D:1909
R: march
S: https://www.patreon.com/posts/rustic-roots-27198819
Z: 2020 John Chambers <jc:trillian.mit.edu>
P: Lively & ceremoniously
%Q: 1/4=180-200
M: 4/4
L: 1/8
K: D
"^A"\
|:   "D"vA3A A2B2 | "D"(d2e2) f4 |\
[1,3 "G"e2d2 B2d2 | "A"f2e2 vfua-a2 :|\
[2,4 "G"e2d2 B2G2 | "A"A4 A4 :|
"^B"\
|:   "D"va3a a2b2 | "D"(a2g2) f4 |\
[1,3 "G"e2d2 B2d2 | "A"f2e2 vfua-a2 :|\
[2,4 "G"e2d2 B2G2 | "A"A4 A4 :|
